X:17635
T:Tonada (CT 296) (Arrg.)
R:Tonada
C:Tradicional
S:Msica Tradicional Asturiana, (C) Tello & Tito. Asturies, 2001.
S:http://pagina.de/MusTradAst <telloytito@asturies.org>
N:Cancin de empleo indeterminado, transcrita en Uviu.
N:Se canta generalmente con acompaamiento de gaita.
O:Uviu
A:Asturies
G:Arrg.
Z:Cancioneru de Torner 296
M:3/4
L:1/8
Q:1/8=138
W:Ai! galn que me cortexes,
W:t me robes la mio vida
W:y mio padre nun te quier
W:porque non ties casera.
W:
W:Tuya soy! Tuya soy
W:galn del alma,
W:tuya soy hasta la muerte;
W:anque mio padre non quiera,
W:hemos de casar pa siempre.
W:Tuya soy!
K:G
|:"G"Gc cB d>c|"G"(d3/2(3e/4d/4c/4) B2 de|
"G"cd (B3/2(3c/4B/4A/4 GA/4B/4A/4G/4|"D"F4)z c|
"D"(d3/2(3e/4d/4c/4) B2 z2|
|"G"Gc cB d>c|"G"(d3/2(3e/4d/4c/4) B2 de
|"G"cd (B3/2(3c/4B/4A/4 GA/4B/4A/4G/4|"D"F4)z c|
"D"(d3/2(3e/4d/4c/4) B2{AB}A>G|"G"G4 z2 :||
